X: 8610
T: Cronin's Frolics
R: jig
M: 6/8
K: Dmajor
|:G|FEF AFD|dcd ecA|fed gec|dcd ecA|
FEF AFA|dfa ece|fed gec|Add d2:|
|:c|ecA efg|afd bge|afd gec|d/e/fd ecA|
FEF AFA|dfa ecA|faf gec|edd d2:|
|:g|afd dgf|ecA Afg|afd Bgf|efd cBA|
afd dcd|gfg ece|fed gec|edd d2:|
|:B|AFD DFA|dcd AFD|AFD DEF|G/A/BG EFG|
ABA DFA|dfa ece|faf gec|edd d2:|

